X: 2
A:Adam de la Halle
T:Fi maris de vostre amour
N: (written out)
M:3/4
L:1/4
Q:1/4=120
K:F Lydian
%
V:1 clef=treble
V:2 clef=treble-8 middle=B,
V:3 clef=treble-8 middle=B,
%%MIDI program 1       70 bassoon
%%MIDI program 2       71 clarinet
%%MIDI program 3       72 piccolo
%
[V:1][K:C] C2 (3:2:2D/E   | F2 (3:2:2F/G| A2  (3A/G/F/ | G2
[V:2][K:C] F2     (3F/E/D/| C2       D  | E2  (3E/D/C/ | D2
[V:3][K:F] F,2      G,    | F,2      B, | A,2   A,     | G,2
w:  1.4.7.~Fi       ma-     ris      de  vostre a-       mour,
%
[V:1][K:C](3:2:2FG/  |((3:2:2F/ED)   E  | F3  ||  C2 ((3:2:2D/E)  | F2   G | A2 (3A/G/F/ ||
[V:2][K:C](3:2:2CD/  |((3:2:2C/B,A,) B, | C3  ||  F2      (3F/E/D/| C2   D | E2 (3E/D/C/ ||
[V:3][K:F](3:2:2F,G,/|       A,2     G, | F,3 ||  F,2       G,    | F,2  B,| A,2  A,     ||
w:         2.8.~Car*         j'ai    a-   mi  3.9.~Biaus   et       de noble a-   tour.
%
[V:1][K:C] C2 (3:2:2D/E   | F2 (3:2:2F/G| A2  (3A/G/F/ | G2   z|
[V:2][K:C] F2     (3F/E/D/| C2       D  | E2  (3E/D/C/ | D2   z|
[V:3][K:F] F,2      G,    | F,2      B, | A,2   A,     | G,2  z|
w:  1.4.7.~Fi       ma-     ris      de  vostre a-       mour,
%
[V:1][K:C] C2 (3:2:2D/E   | F2 (3:2:2F/G| A2  (3A/G/F/ | G2
[V:2][K:C] F2     (3F/E/D/| C2       D  | E2  (3E/D/C/ | D2
[V:3][K:F] F,2      G,    | F,2      B, | A,2   A,     | G,2
w:  ~~5.~~~Il       me     sert      et  nuit   et       jour.
%
[V:1][K:C](3:2:2FG/  |((3:2:2F/ED)   E  | F3  ||
[V:2][K:C](3:2:2CD/  |((3:2:2C/B,A,) B, | C3  ||
[V:3][K:F](3:2:2F,G,/|       A,2     G, | F,3 ||
w:         ~~6.~Pour*        che   l'aim  ci.
%
[V:1][K:C] C2 (3:2:2D/E   | F2 (3:2:2F/G| A2  (3A/G/F/ | G2
[V:2][K:C] F2     (3F/E/D/| C2       D  | E2  (3E/D/C/ | D2
[V:3][K:F] F,2      G,    | F,2      B, | A,2   A,     | G,2
w:  1.4.7.~Fi       ma-     ris      de  vostre a-       mour,
%
[V:1][K:C](3:2:2FG/  |((3:2:2F/ED)   E  | F3  ||  C2 ((3:2:2D/E)  | F2   G | A2 (3A/G/F/ ||
[V:2][K:C](3:2:2CD/  |((3:2:2C/B,A,) B, | C3  ||  F2      (3F/E/D/| C2   D | E2 (3E/D/C/ ||
[V:3][K:F](3:2:2F,G,/|       A,2     G, | F,3 ||  F,2       G,    | F,2  B,| A,2  A,     ||
w:         2.8.~Car*         j'ai    a-   mi  3.9.~Biaus   et       de noble a-   tour.
